X:1
T:MY BARREN ACRES
M:2/4
Q:1/4=120
K:Bb
G4F4|B2B2c2c2|d4f2e2|d8|d4c2d2|B2B2A2A2|G4B2A2|
G8|G4F4|B2B2c2c2|d4f2e2|d8|d4c2d2|B2B2A2A2|
G4B2A2|G7||
